fs/rocket_16_filled.svg

<svg viewBox="0 0 16 16" fill="none" xmlns="http://www.w3.org/2000/svg" height="1em" width="1em">
  <path d="M8.36379 5.34575C8.9975 4.71205 10.024 4.71717 10.6566 5.34973C11.2891 5.98229 11.2943 7.00881 10.6606 7.64252C10.0268 8.27623 9.00033 8.2711 8.36777 7.63854C7.73521 7.00598 7.73008 5.97946 8.36379 5.34575ZM9.94947 6.05684C9.70408 5.81145 9.31074 5.81302 9.0709 6.05286C8.83105 6.2927 8.82949 6.68605 9.07487 6.93143C9.32026 7.17682 9.71361 7.17525 9.95345 6.93541C10.1933 6.69557 10.1949 6.30222 9.94947 6.05684ZM7.50127 11.0038L7.66778 11.1703C8.05851 11.561 8.61117 11.6911 9.10973 11.5606L9.95981 12.4107C10.1551 12.606 10.4716 12.606 10.6669 12.4107L11.7413 11.3363C12.3953 10.6823 12.4928 9.68263 12.0338 8.92562L12.5839 8.3755C13.8594 7.1 14.3196 5.22093 13.7779 3.50037C13.587 2.89414 13.1121 2.41929 12.5059 2.22841C10.7853 1.68666 8.90627 2.14686 7.63077 3.42236L7.08049 3.97263C6.32318 3.514 5.32348 3.61171 4.66945 4.26574L3.59574 5.33944C3.40048 5.53471 3.40048 5.85129 3.59574 6.04655L4.44566 6.89647C4.31512 7.39505 4.44523 7.94773 4.83597 8.33848L5.00281 8.50532L4.23042 8.96713C4.09816 9.04622 4.00975 9.18187 3.9908 9.3348C3.97185 9.48774 4.02449 9.64086 4.13345 9.74983L6.25647 11.8728C6.36541 11.9818 6.51849 12.0344 6.67139 12.0155C6.82429 11.9966 6.95993 11.9083 7.03905 11.7761L7.50127 11.0038ZM12.824 3.8007C13.2538 5.16571 12.8887 6.65647 11.8768 7.66839L9.082 10.4632C8.88674 10.6584 8.57015 10.6584 8.37489 10.4632L7.75903 9.84732L7.75506 9.84331L6.16349 8.25174L6.15948 8.24777L5.54307 7.63137C5.34781 7.43611 5.34781 7.11953 5.54308 6.92426L8.33787 4.12946C9.34979 3.11754 10.8406 2.75245 12.2056 3.18224C12.5003 3.27505 12.7312 3.50594 12.824 3.8007ZM4.84893 11.8645C5.04419 11.6692 5.04419 11.3527 4.84893 11.1574C4.65367 10.9621 4.33708 10.9621 4.14182 11.1574L2.82158 12.4776C2.62632 12.6729 2.62632 12.9895 2.82158 13.1847C3.01684 13.38 3.33342 13.38 3.52869 13.1847L4.84893 11.8645ZM3.78728 10.096C3.98255 10.2913 3.98255 10.6078 3.78728 10.8031L3.25785 11.3325C3.06259 11.5278 2.74601 11.5278 2.55074 11.3325C2.35548 11.1373 2.35548 10.8207 2.55074 10.6254L3.08018 10.096C3.27544 9.90073 3.59202 9.90073 3.78728 10.096ZM5.91033 12.926C6.10559 12.7308 6.10559 12.4142 5.91033 12.2189C5.71507 12.0237 5.39849 12.0237 5.20322 12.2189L4.67379 12.7484C4.47853 12.9436 4.47853 13.2602 4.67379 13.4555C4.86905 13.6507 5.18564 13.6507 5.3809 13.4555L5.91033 12.926Z" fill="#212121"/>
</svg>

<svg viewBox="0 0 16 16" fill="none" xmlns="http://www.w3.org/2000/svg" height="1em" width="1em">
  <path d="M8.364 5.346a1.621 1.621 0 0 1 2.293.004c.632.632.637 1.659.004 2.293a1.621 1.621 0 0 1-2.293-.004 1.621 1.621 0 0 1-.004-2.293Zm1.585.71a.621.621 0 0 0-.878-.003.621.621 0 0 0 .004.878.621.621 0 0 0 .878.004.621.621 0 0 0-.004-.878Zm-2.448 4.948.167.166c.39.391.943.521 1.442.39l.85.85a.5.5 0 0 0 .707 0l1.074-1.074a1.969 1.969 0 0 0 .293-2.41l.55-.55A4.84 4.84 0 0 0 13.778 3.5a1.947 1.947 0 0 0-1.272-1.272A4.84 4.84 0 0 0 7.63 3.422l-.55.55a1.97 1.97 0 0 0-2.412.294L3.596 5.339a.5.5 0 0 0 0 .708l.85.85a1.5 1.5 0 0 0 .39 1.441l.167.167-.773.462a.5.5 0 0 0-.097.783l2.123 2.123a.5.5 0 0 0 .783-.097l.462-.772ZM12.824 3.8a3.84 3.84 0 0 1-.947 3.867l-2.795 2.795a.5.5 0 0 1-.707 0l-.616-.616-.004-.004-1.592-1.591-.004-.004-.616-.617a.5.5 0 0 1 0-.707L8.338 4.13a3.84 3.84 0 0 1 3.868-.947.946.946 0 0 1 .618.619Zm-7.975 8.064a.5.5 0 1 0-.707-.708l-1.32 1.32a.5.5 0 1 0 .707.708l1.32-1.32Zm-1.062-1.769a.5.5 0 0 1 0 .707l-.53.53a.5.5 0 1 1-.706-.708l.53-.529a.5.5 0 0 1 .706 0Zm2.123 2.83a.5.5 0 1 0-.707-.707l-.53.53a.5.5 0 1 0 .708.707l.53-.53Z" fill="#212121"/>
</svg>
